X: 1563
T: Pencereden Taş Gelir
C: ?
O: Turkey
F: http://compmusic.upf.edu/node/140
N: segah--turku--iki-bir--pencereden_tas--kars
N: makam= segah
N: form= turku
N: usul= iki-bir = 12/8
M: 12/8
L: 1/16
K: C _1/4B _1/4e ^f 
Q: 1/4=180
%%MIDI tuningsystem comma53
d3c d2c2 {d}cBz2 B4 d2c2 {d}c2{d}B2  | \
w:  ARANAĞME  | 
d3c d2de dcz2 B4 B2B^3/4A B2z2  | 
w:   | 
d3c d2c2 {d}cBz2 B4 d2c2 {d}c2{d}B2  | \
w:  ARANAĞME  | 
d3c d2de dcz2 B4 B2B^3/4A B2z2  | 
w:   | 
G4 d2d2 d4 d3c d2c2 {d}c2{d}B2  | \
w:  Pen ce re den  taş  *  ge lir    | 
d3c d2de dcz2 B4 B2B^3/4A B2z2  | 
w:  Ay  *  be ri  bah  *  *  be ri  bah    | 
d3c d2c2 {d}cBz2 B4 d2c2 {d}c2{d}B2  | \
w:  E *  lâ  göz *  den  *  yaş  ge lir    | 
d3c d2de dcz2 B4 B2B^3/4A B2z2  | 
w:  Dön  *  be ri  bah  *  *  be ri  bah    | 
f2e2 f2_2/4e2 {f}e2{f}d2 d3c d2c2 {d}c2{d}B2  | \
w:  Se ni  de  me *  ne  *  *  ver *  se ler    | 
d3c d2de dcz2 B4 B2B^3/4A B2z2  | 
w:  Ay  *  be ri  bah  *  *  be ri  bah    | 
d3c d2c2 {d}cBz2 B4 d2c2 {d}c2{d}B2  | \
w:  Al *  la ha  *  da  *  hoş  ge lir    | 
d3c d2de dcz2 B4 B2B^3/4A B2z2  | 
w:  Dön  *  be ri  bah  *  *  be ri  bah    | 
d3c d2c2 {d}cBz2 B4 d2c2 {d}c2{d}B2  | \
w:  Al *  la ha  *  da  *  hoş  ge lir    | 
d3c d2de dcz2 B4 B2B^3/4A B2z2  | 
w:  Dön  *  be ri  bah  *  *  be ri  bah    | 
d3c d2c2 {d}cBz2 B4 d2c2 {d}c2{d}B2  | \
w:  ARANAĞME  | 
d3c d2de dcz2 B4 B2B^3/4A B2z2  | 
w:   | 
d3c d2c2 {d}cBz2 B4 d2c2 {d}c2{d}B2  | \
w:  ARANAĞME  | 
d3c d2de dcz2 B4 B2B^3/4A B2z2  | 
w:   | 
G4 d2d2 d4 d3c d2c2 {d}c2{d}B2  | \
w:  Pen ce re den  taş  *  ge lir    | 
d3c d2de dcz2 B4 B2B^3/4A B2z2  | 
w:  Ay  *  be ri  bah  *  *  be ri  bah    | 
d3c d2c2 {d}cBz2 B4 d2c2 {d}c2{d}B2  | \
w:  E *  lâ  göz *  den  *  yaş  ge lir    | 
d3c d2de dcz2 B4 B2B^3/4A B2z2  | 
w:  Dön  *  be ri  bah  *  *  be ri  bah    | 
f2e2 f2_2/4e2 {f}e2{f}d2 d3c d2c2 {d}c2{d}B2  | \
w:  Se ni  de  me *  ne  *  *  ver *  se ler    | 
d3c d2de dcz2 B4 B2B^3/4A B2z2  | 
w:  Ay  *  be ri  bah  *  *  be ri  bah    | 
d3c d2c2 {d}cBz2 B4 d2c2 {d}c2{d}B2  | \
w:  Al *  la ha  *  da  *  hoş  ge lir    | 
d3c d2de dcz2 B4 B2B^3/4A B2z2  | 
w:  Dön  *  be ri  bah  *  *  be ri  bah    | 
d3c d2c2 {d}cBz2 B4 d2c2 {d}c2{d}B2  | \
w:  Al *  la ha  *  da  *  hoş  ge lir    | 
d3c d2de dcz2 B4 B2B^3/4A B2z2  | 
w:  Dön  *  be ri  bah  *  *  be ri  bah    | 
|


